docs/themes/v2/source/images/new/logo.svg

<svg width="82" height="17" viewBox="0 0 82 17" fill="none" xmlns="http://www.w3.org/2000/svg">
<path d="M0.452 16H3.356V9.598H9.076V16H11.98V0.599999H9.076V6.958H3.356V0.599999H0.452V16ZM19.9495 16.308C22.9415 16.308 24.2395 14.614 24.8555 13.448L22.5895 12.26C22.2155 13.096 21.5775 13.888 20.0375 13.888C18.4975 13.888 17.3315 12.854 17.2655 11.358H25.2075V10.412C25.2075 7.068 23.1175 4.78 19.9055 4.78C16.6495 4.78 14.4495 6.98 14.4495 10.412V10.676C14.4495 14.108 16.6715 16.308 19.9495 16.308ZM17.2875 9.29C17.4855 8.036 18.3875 7.2 19.8835 7.2C21.3135 7.2 22.2595 8.036 22.3915 9.29H17.2875ZM31.0628 16.308C33.3508 16.308 34.0328 15.076 34.2308 14.526H34.6488V14.548C34.6488 15.428 35.4408 16 36.5188 16H38.3668V13.712H37.4868C37.0908 13.712 36.8708 13.492 36.8708 13.052V8.982C36.8708 6.254 35.0668 4.78 32.2068 4.78C29.3688 4.78 27.9388 6.21 27.4108 7.86L29.9628 8.718C30.1608 7.728 30.7768 7.024 32.1628 7.024C33.5708 7.024 34.1868 7.772 34.1868 8.784V9.4H31.1948C28.7308 9.4 26.9708 10.566 26.9708 12.81C26.9708 15.054 28.7308 16.308 31.0628 16.308ZM31.5468 14.064C30.3588 14.064 29.7428 13.514 29.7428 12.722C29.7428 11.93 30.3588 11.468 31.3928 11.468H34.1868V11.688C34.1868 13.14 33.0868 14.064 31.5468 14.064ZM40.3935 16H43.1655V9.796C43.1655 8.256 44.1775 7.508 45.5855 7.508H46.9495V5.044H45.6295C44.6175 5.044 43.8255 5.44 43.5175 6.32H43.1215V5.088H40.3935V16ZM53.2962 16H56.3762V13.712H54.2642C53.8682 13.712 53.6482 13.492 53.6482 13.052V7.376H56.6402V5.088H53.6482V1.7H50.8762V5.088H48.1482V7.376H50.8762V13.536C50.8762 15.032 51.8442 16 53.2962 16ZM63.7347 16.308C66.7267 16.308 68.0247 14.614 68.6407 13.448L66.3747 12.26C66.0007 13.096 65.3627 13.888 63.8227 13.888C62.2827 13.888 61.1167 12.854 61.0507 11.358H68.9927V10.412C68.9927 7.068 66.9027 4.78 63.6907 4.78C60.4347 4.78 58.2347 6.98 58.2347 10.412V10.676C58.2347 14.108 60.4567 16.308 63.7347 16.308ZM61.0727 9.29C61.2707 8.036 62.1727 7.2 63.6687 7.2C65.0987 7.2 66.0447 8.036 66.1767 9.29H61.0727ZM69.7829 16H73.0389L75.5249 12.326H75.9209L78.4069 16H81.6629L77.7029 10.5L81.6189 5.088H78.4069L75.9209 8.718H75.5249L73.0389 5.088H69.8269L73.7429 10.5L69.7829 16Z" fill="black" fill-opacity="0.5"/>
</svg>

<svg fill="none" height="17" viewBox="0 0 82 17" width="82" xmlns="http://www.w3.org/2000/svg"><path d="m.452 16h2.904v-6.402h5.72v6.402h2.904v-15.400001h-2.904v6.358001h-5.72v-6.358001h-2.904zm19.4975.308c2.992 0 4.29-1.694 4.906-2.86l-2.266-1.188c-.374.836-1.012 1.628-2.552 1.628s-2.706-1.034-2.772-2.53h7.942v-.946c0-3.344-2.09-5.632-5.302-5.632-3.256 0-5.456 2.2-5.456 5.632v.264c0 3.432 2.222 5.632 5.5 5.632zm-2.662-7.018c.198-1.254 1.1-2.09 2.596-2.09 1.43 0 2.376.836 2.508 2.09zm13.7753 7.018c2.288 0 2.97-1.232 3.168-1.782h.418v.022c0 .88.792 1.452 1.87 1.452h1.848v-2.288h-.88c-.396 0-.616-.22-.616-.66v-4.07c0-2.728-1.804-4.202-4.664-4.202-2.838 0-4.268 1.43-4.796 3.08l2.552.858c.198-.99.814-1.694 2.2-1.694 1.408 0 2.024.748 2.024 1.76v.616h-2.992c-2.464 0-4.224 1.166-4.224 3.41s1.76 3.498 4.092 3.498zm.484-2.244c-1.188 0-1.804-.55-1.804-1.342s.616-1.254 1.65-1.254h2.794v.22c0 1.452-1.1 2.376-2.64 2.376zm8.8467 1.936h2.772v-6.204c0-1.54 1.012-2.288 2.42-2.288h1.364v-2.464h-1.32c-1.012 0-1.804.396-2.112 1.276h-.396v-1.232h-2.728zm12.9027 0h3.08v-2.288h-2.112c-.396 0-.616-.22-.616-.66v-5.676h2.992v-2.288h-2.992v-3.388h-2.772v3.388h-2.728v2.288h2.728v6.16c0 1.496.968 2.464 2.42 2.464zm10.4385.308c2.992 0 4.29-1.694 4.906-2.86l-2.266-1.188c-.374.836-1.012 1.628-2.552 1.628s-2.706-1.034-2.772-2.53h7.942v-.946c0-3.344-2.09-5.632-5.302-5.632-3.256 0-5.456 2.2-5.456 5.632v.264c0 3.432 2.222 5.632 5.5 5.632zm-2.662-7.018c.198-1.254 1.1-2.09 2.596-2.09 1.43 0 2.376.836 2.508 2.09zm8.7102 6.71h3.256l2.486-3.674h.396l2.486 3.674h3.256l-3.96-5.5 3.916-5.412h-3.212l-2.486 3.63h-.396l-2.486-3.63h-3.212l3.916 5.412z" fill="#000" fill-opacity=".5"/></svg>
